X:1
T:Una furtiva lagrima
T:Romanza da "L'Elisir d'amore"
T:Gaetano Donizetti (1797 - 1848)
T:Scritto con MuseScore, un software libero e gratuito: http://musescore.org/it 
T:Scritto con MuseScore, un software libero e gratuito: http://musescore.org/it 
T:Scritto con MuseScore, un software libero e gratuito: http://musescore.org/it 
T:Scritto con MuseScore, un software libero e gratuito: http://musescore.org/it 
Z:Scritto con MuseScore, un software libero e gratuito: http://musescore.org/it
%%score ( 1 2 ) { ( 3 5 ) | 4 }
L:1/8
Q:1/4=36
M:6/8
K:Db
V:1 treble-8 nm="Tenor"
V:2 treble-8 
V:3 treble nm="Piano"
V:5 treble 
V:4 bass 
V:1
"^Larghetto" z6 | z6 | z6 | z6 | z6 | z6 |[K:Db] z6 | z6 | z6 | f B B B2 B | %10
w: |||||||||U\- na fur\- ti\- va|
 !>!B3/4 =A/4 c2- c z z | g c c{cd} (ed) c | B2 z z3 | f =e f !>!_a2 _g | =e7/4 f/4 f z !>!f2 | %15
w: la\- gri\- ma _|ne\- gli~͜~oc\- chi suoi * spun\-|tò:|quel\- le fe\- sto\- se|gio\- va\- ni in\-|
 (ef) e (_dc) B | F2 z z3 |!p! f c c (_d{ed}c) B | c2 z z3 | f g e (dc) B |!<(! c6!<)! | %21
w: vi- * di\- ar * sem\-|brò:|che più cer\- can- * do~͜~io|vo?|che più cer\- can- * do~͜~io|vo?|
!f! (f3 d) z f | (agf) (ef) g | (d2 A3/4) A/4 (!>!f2{/f} e) | !>!d2 z z3 | z6 |!p! f B B B2 B | %27
w: M'a\- ma, sì,|m'a- * * ma, * lo|ve\- do, lo ve- *|do!...||Un so\- lo~͜~~i\- stan\- te~͜~i|
 B3/4 =A/4 c2- c z z | _g c c{cd} (ed) .c | B2 z z3 | f =e f !>!_a2 _g | %31
w: pal\- pi\- ti _|del suo bel cor _ sen\-|tir,|I miei so\- spir con\-|
 !>!=e7/4 f/4 f- f z!pp! f |"^smorz." f _e3/2 e/ (e_d) d | c2 z z3 | %34
w: fon\- de\- re _ per|po\- co a' suoi * so\-|spir,|
 !>!f3/2 c/ c/ c/ e3/2 d/ c/ B/ | c2 z z2 f | !>!f3/2 c/ c/ c/ !>!e3/2 _d/ c/ B/ |!<(! f6!<)! | %38
w: pal\- pi\- ti, i pal\- pi\- ti sen\-|tir, con\-|fon\- de\- re i miei co' suoi so\-|spir...|
[K:Bb]!f! !>!g f d (fe) c | B3!p! (=B/c/) (d/e/) (f/g/) | (g _B) .B (cdc) | B z z !>!f3 | %42
w: Cie\- lo, si può * mo\-|rir, di * più * non *|chie\- do, non chie- * *|do ah!|
 (g f) .d f/ =e/ ((g/f/)) (_e/c/) | B3!<(! c (d/e/) (f/g/)!<)! | %44
w: cie\- lo, si può, si può * mo- *|rir, di più * non *|
 (g B) B (!fermata!A2[Q:1/4=45][Q:1/4=72]"^Adagio" !fermata!d/>)c/ | B z z z3 | z6 | z6 | z6 |] %49
w: chie\- do, non chie _ _|do!||||
V:2
 x6 | x6 | x6 | x6 | x6 | x6 |[K:Db] x6 | x6 | x6 | x6 | x6 | x6 | x6 | x6 | x6 | x6 | x6 | x6 | %18
 x6 | x6 | x6 | x6 | x6 | x6 | x6 | x6 | x6 | x6 | x6 | x6 | x6 | x6 | (fe) x4 | x6 | x6 | x6 | %36
 x6 | x6 |[K:Bb] x6 | x6 | x6 | x6 | x3 (f/_e/)g/f/ x | x6 | %44
 x4"^Grave" (17:2:17G/4F/4G/4A/4B/4c/4B/4A/4B/4c/4d/4e/4d/4c/4d/4e/4f/4(6:1:7g/f/e/c/A/F/ x3 x/ | %45
 x6 | x6 | x6 | x6 |] %49
V:3
 z6 | (FB,)B, B,2 B, | (B,/=A,/) C2- C z z | (GC)C C2 C | (C/>B,/) D2- D z z | %5
 (F{GF}=E)F !>!_A2 G | F3 (_E{FE}D)C | B,(G/F/)(=E/F/) =A,(G/F/)(E/F/) | B, z z z3 | z6 | %10
 z3 (B/>=A/) c z | z6 | z3 (c/>B/) d z | [DB]2 z [Ec]2 z | [Fd]2 z [Fd]2 z | [CGc]2 z [E=GB]2 z | %16
 [F=A]CC ([Dd]/_E/4)D/4CB, | (([=A,=A]3 [B,B])) z z | (fc)c (d/e/4d/4cB) | =A3 z [DB]2 | %20
 [C=G]2 z z3 | [F_A]2 z [FA]2 z | [GB]2 z [GB]2 z | [FA]2 z [Ec]2 z | %24
 [Fd]2 z{c'd'} ([ee'][dd'][cc']) | [Bb] z z z3 | z6 | z3 ([Bb]/>[=A=a]/ [cc']) z | z6 | %29
 z3 ([cc']/>[Bb]/ [dd']) z | z6 | [Fd]2 z [Fd]2 z | [CGc]2 z [D=GB]2 z | %33
 ([F=A]C).C ([DB]/_E/4D/4)CB, | (([=A,=A]3 [B,B])) z z | (fc)c (d/e/4d/4cB) | =A2 z [DB]2 z | %37
 [C=A] ([FA][=GB]!<(! [_Ac][B=d][ce])!<)! |[K:Bb] (!>![eg][df][Bd]) ([df][ce][Ac]) | %39
 B .[DGB].[DGB] .[EGc]2 z | z .[DFB].[DFB] z .[CFA].[CFA] | ([ge'][fd']).[db] ([fd'][ec']).[ca] | %42
 ([eg][df]).[Bd] ([df][ce]).[Ac] | z .[DFA].[DFA] z .[CFA].[CFA] | %44
 [DFB]2 z !fermata![CFA]2 !fermata!z | z (g/f/)(=e/g/) .c(g/f/)(_e/f/) | %46
 .B(_G/F/)(=E/F/) .A,(G/F/)(E/F/) | B, z z .[DFB].[DFB].[DFB] | .[DFB]2 z !fermata!z3 |] %49
V:4
!p! B,,,/F,,/B,,/D,/B,,/F,,/ B,,,/F,,/B,,/D,/B,,/F,,/ | %1
 B,,,/F,,/B,,/D,/B,,/F,,/ B,,,/F,,/B,,/D,/B,,/F,,/ | %2
 C,,/F,,/=A,,/D,/A,,/F,,/ C,,/F,,/A,,/E,/A,,/F,,/ | %3
 =A,,,/F,,/C,/E,/C,/G,,/ A,,,/F,,/C,/E,/C,/F,,/ | %4
 B,,,/F,,/B,,/D,/B,,/F,,/ B,,,/F,,/B,,/D,/B,,/F,,/ | %5
"^cresc." B,,,/F,,/B,,/D,/B,,/F,,/ C,,/_A,,/_E,/G,/E,/A,,/ | %6
"^calando" B,,,/A,,/D,/F,/D,/A,,/ E,,/G,,/C,/E,/C,/G,,/ | [F,,B,,D,] z z [F,,C,] z z | %8
 B,,/F,/B,/D/B,/F,/ D,/F,/B,/D/B,/F,/ | B,,/F,/B,/D/B,/F,/ B,,/F,/B,/D/B,/F,/ | %10
 C,/F,/=A,/E/A,/F,/ C,/F,/A,/E/A,/F,/ | =A,,/_G,/C/E/C/G,/ C,/G,/C/E/C/G,/ | %12
 B,,/F,/B,/D/B,/F,/ B,,/F,/B,/D/B,/F,/ | C,/F,/B,/D/B,/F,/ _A,,/G,/C/E/C/G,/ | %14
 D,/F,/A,/D/A,/F,/ D,/F,/A,/D/A,/F,/ | [E,,E,]2 z [=D,,=D,]2 z | %16
 F,,/=A,,/C,/F,/C,/A,,/ F,,/B,,/D,/F,/C,/B,,/ | F,,/C,/F,/=A,/F,/C,/ F,,/D,/F,/B,/F,/D,/ | z6 | %19
 F,,/C,/F,/=A,/F,/C,/ F,,/D,/F,/B,/F,/D,/ | F,,/=A,,/C,/F,/C,/A,,/ F,,/A,,/C,/F,/=A,/C/ | %21
 D,,/_A,,/D,/F,/D,/!p!A,,/ D,,/A,,/D,/F,/D,/A,,/ | A,,/D,/F,/A,/F,/D,/ A,,/C,/E,/G,/E,/C,/ | %23
 G,,/B,,/E,/G,/E,/B,,/ G,,/B,,/E,/G,/E,/B,,/ | D,,/A,,/D,/F,/D,/A,,/ F,,/=A,,/C,/F,/C,/A,,/ | %25
 B,,/F,/B,/D/B,/F,/ B,,/F,/B,/D/B,/F,/ | B,,/F,/B,/D/B,/F,/ B,,/F,/B,/D/B,/F,/ | %27
 C,/F,/=A,/E/A,/F,/ C,/F,/A,/E/A,/F,/ | =A,,/_G,/C/F/C/G,/ A,,/G,/C/E/C/G,/ | %29
 B,,/F,/B,/D/B,/F,/ B,,/F,/B,/D/B,/F,/ | B,,/F,/B,/D/B,/F,/ _A,,/G,/C/E/C/G,/ | %31
 D,/F,/A,/D/A,/F,/ D,/F,/A,/D/A,/F,/ | [E,,E,]2 z [=E,,=E,]2 z | %33
 F,,/=A,,/C,/F,/C,/A,,/ F,,/B,,/D,/F,/D,/B,,/ | F,,/=A,,/C,/F,/C,/A,,/ F,,/B,,/D,/F,/D,/B,,/ | %35
 F,,/C,/D,/=A,/F,/C,/ F,,/D,/F,/A,/F,/B,,/ | F,,/C,/D,/=A,/F,/C,/ F,,/D,/F,/A,/F,/B,,/ | %37
 F,,/F,/=A,/C/F,/C/ F,/F/F,/F/F,/F/ |[K:Bb] F,,/F,/A,/C/F,/C/ F,/F/F,/F/F,/F/ | %39
 F,,/B,,/D,/G,/D,/B,,/ [E,,E,] z z | G,,/D,/F,/B,/F,/D,/ G,,/E,/F,/B,/F,/E,/ | %41
 B,,/F,/[B,D]/F,/[B,D]/F,/ F,,/F,/[CE]/F,/[CE]/F,/ | %42
 B,,/F,/[B,D]/F,/[B,D]/F,/ F,,/F,/[CE]/F,/[CE]/F,/ | G,,/D,/F,/B,/F,/D,/ G,,/E,/F,/B,/F,/E,/ | %44
 [F,,F,]2 z !fermata![F,,F,]2 !fermata!z | [B,D]2 z [F,A,_E]2 z | [B,D]2 z [F,,C,_E,]2 z | %47
 [B,,D,] z z .B,,.F,,.D,, | .B,,,2 z !fermata!z3 |] %49
V:5
 x6 | x6 | x6 | x6 | x6 | x6 | x6 | x6 | x6 | x6 | x6 | x6 | x6 | x6 | x6 | x6 | x6 | x6 | %18
 (=A3 B) z z | x6 | x6 | x6 | x6 | x6 | x6 | x6 | x6 | x6 | x6 | x6 | x6 | x6 | x6 | x6 | x6 | %35
 (=A3 B) z z | x6 | x6 |[K:Bb] x6 | x6 | x6 | x6 | x6 | x6 | x6 | x6 | x6 | x6 | x6 |] %49

